X:1
T: Queen Elizabeth at Bonaventure Gardens
C:Bruce Shawyer
R:Strathspey
Q:128
K:Em
M:4/4
L:1/16
|:B2|GE3 E3F G3A B3B|d3d B3d e6e2|dB3 B3A GE3 E3G|FD3 D3F E6B2|
GE3 E3F G3A B3B|d3d B3d e6e2|dB3 B3A GE3 E3G|FD3 D3F E6B2|
ee3 e3f g3f e3g|f3e d3e f6f2|ee3 e3f g3f e3g|af3 f3d e6B2|
ee3 e3f g3f e3g|f3e d3e f6f2|g3e c3e g3d B3g|af3 f3d e6:|
